storage/app/icons/phosphoricons/bold/cards-three-bold.svg

<svg xmlns="http://www.w3.org/2000/svg" fill="currentColor" viewBox="0 0 256 256"><path d="M208 96H48a20 20 0 0 0-20 20v84a20 20 0 0 0 20 20h160a20 20 0 0 0 20-20v-84a20 20 0 0 0-20-20m-4 100H52v-76h152ZM44 68a12 12 0 0 1 12-12h144a12 12 0 0 1 0 24H56a12 12 0 0 1-12-12m16-40a12 12 0 0 1 12-12h112a12 12 0 0 1 0 24H72a12 12 0 0 1-12-12"/></svg>

<svg xmlns="http://www.w3.org/2000/svg" viewBox="0 0 256 256" fill="currentColor"><path d="M208,96H48a20,20,0,0,0-20,20v84a20,20,0,0,0,20,20H208a20,20,0,0,0,20-20V116A20,20,0,0,0,208,96Zm-4,100H52V120H204ZM44,68A12,12,0,0,1,56,56H200a12,12,0,0,1,0,24H56A12,12,0,0,1,44,68ZM60,28A12,12,0,0,1,72,16H184a12,12,0,0,1,0,24H72A12,12,0,0,1,60,28Z"/></svg>
